X: 1
T: Peter Sanderson's Strathspey
C: Andrew Rankine
M: 4/4
L: 1/8
K: A
E2 \
|: "A"A2 A>B c>B A<a \
| "D"f>e d<f "A"e>d c<e \
|1 "Bm"d>c B>A "E7"G>F E>D \
| "A"(3CEA c>e "E7"d>c d<B :|
|2 "Bm"d>c B>A "E7"G>F (3Eed \
| "A"c>A "E7"B>G "A"A2 \
|] e2 \
| "A"a2 f>e f>e c<e \
| "D"f>e d<f "A"e>d c<e \
| "A"a2 f>e "F#m"f>e c<e |
| "Bm"d>c d>c B>f "E7"(3efg \
||"A"a2 f>e f>e c<e \
| "D"f>e d<f "A"e>d c<e \
| "B(m)"d>c B>A "E7"G>F (3Eed \
| "A"c>A "E7"B>G "A"A2 |]

%%sep 1 1 500

